public/img/contact/fb.svg

<svg width="40" height="40" viewBox="0 0 40 40" fill="none" xmlns="http://www.w3.org/2000/svg">
<circle cx="20" cy="20" r="20" fill="#303A4D"/>
<g clip-path="url(#clip0_182_208)">
<path d="M18.0233 27.9999L18.0004 20.9999H15.0004V17.9999H18.0004V15.9999C18.0004 13.3007 19.6719 11.9999 22.0797 11.9999C23.2331 11.9999 24.2244 12.0858 24.5133 12.1242V14.945L22.8433 14.9458C21.5338 14.9458 21.2802 15.568 21.2802 16.4812V17.9999H25.0004L24.0004 20.9999H21.2802V27.9999H18.0233Z" fill="white"/>
</g>
<defs>
<clipPath id="clip0_182_208">
<rect width="16" height="16" fill="white" transform="translate(12.0004 11.9999)"/>
</clipPath>
</defs>
</svg>

<svg width="40" height="40" fill="none" xmlns="http://www.w3.org/2000/svg"><circle cx="20" cy="20" r="20" fill="#303A4D"/><g clip-path="url(#a)"><path d="M18.023 28 18 21h-3v-3h3v-2c0-2.7 1.672-4 4.08-4 1.153 0 2.144.086 2.433.124v2.821h-1.67c-1.31 0-1.563.623-1.563 1.536V18H25l-1 3h-2.72v7h-3.257z" fill="#fff"/></g><defs><clipPath id="a"><path fill="#fff" transform="translate(12 12)" d="M0 0h16v16H0z"/></clipPath></defs></svg>
